svgs/duotone/up.svg

<svg xmlns="http://www.w3.org/2000/svg" viewBox="0 0 384 512"><!-- Font Awesome Pro 6.0.0-alpha2 by @fontawesome - https://fontawesome.com License - https://fontawesome.com/license (Commercial License) --><defs><style>.fa-secondary{opacity:.4}</style></defs><path d="M256 256V448C256 465.674 241.672 480 224 480H160C142.326 480 128 465.674 128 448V256H256Z" class="fa-secondary"/><path d="M381.563 236.25C376.609 248.203 364.938 256 352 256H32C19.063 256 7.391 248.203 2.438 236.25C-2.516 224.281 0.219 210.531 9.375 201.375L169.375 41.375C175.625 35.125 183.813 32 192 32S208.375 35.125 214.625 41.375L374.625 201.375C383.781 210.531 386.516 224.281 381.563 236.25Z" class="fa-primary"/></svg>

<svg xmlns="http://www.w3.org/2000/svg" viewBox="0 0 384 512"><!--! Font Awesome Pro 6.3.0 by @fontawesome - https://fontawesome.com License - https://fontawesome.com/license (Commercial License) Copyright 2023 Fonticons, Inc. --><defs><style>.fa-secondary{opacity:.4}</style></defs><path class="fa-primary" d="M381.6 236.3C376.6 248.2 364.9 256 352 256h-320c-12.94 0-24.61-7.797-29.56-19.75C-2.516 224.3 .2188 210.5 9.375 201.4l159.1-160C175.6 35.13 183.8 32 192 32s16.38 3.125 22.62 9.375l160 160C383.8 210.5 386.5 224.3 381.6 236.3z"/><path class="fa-secondary" d="M256 256v192c0 17.67-14.33 32-32 32h-64c-17.67 0-32-14.33-32-32V256H256z"/></svg>
